svg/fluentui-system-icons/ic_fluent_chat_settings_20_filled.svg

<svg width="20" height="20" viewBox="0 0 20 20" fill="none" xmlns="http://www.w3.org/2000/svg">
<path d="M10 2C14.4183 2 18 5.58172 18 10C18 10.0849 17.9987 10.1696 17.996 10.2539C17.0457 9.47051 15.8278 9 14.5 9C11.4624 9 9.00001 11.4624 9.00001 14.5C9.00001 15.8278 9.47052 17.0457 10.2539 17.996C10.1696 17.9987 10.085 18 10 18C8.72679 18 7.49591 17.7018 6.38669 17.1393L6.266 17.075L2.62109 17.9851C2.31127 18.0625 2.02622 17.8369 2.00131 17.5438L2.00114 17.4624L2.01493 17.3787L2.925 13.735L2.86169 13.6153C2.4066 12.7186 2.12433 11.7422 2.03275 10.7283L2.00738 10.3463L2 10C2 5.58172 5.58172 2 10 2ZM12.0652 11.4421C12.3685 12.5233 11.7225 13.6422 10.6346 13.9201L10.1735 14.0379C10.1586 14.1898 10.1509 14.344 10.1509 14.5C10.1509 14.6877 10.162 14.8726 10.1835 15.0543L10.5331 15.1369C11.6525 15.4016 12.3185 16.5537 11.9892 17.6559L11.8628 18.0787C12.12 18.2819 12.3998 18.4561 12.6975 18.5966L13.0225 18.2524C13.8123 17.4162 15.1431 17.4169 15.932 18.254L16.2694 18.6119C16.5618 18.477 16.8372 18.3097 17.0912 18.1143L16.9351 17.5577C16.6318 16.4765 17.2778 15.3576 18.3657 15.0797L18.8263 14.9621C18.8412 14.8101 18.8489 14.656 18.8489 14.5C18.8489 14.3122 18.8378 14.1271 18.8162 13.9454L18.4672 13.8629C17.3478 13.5982 16.6818 12.4461 17.0111 11.3439L17.1373 10.9216C16.8801 10.7183 16.6003 10.5441 16.3025 10.4036L15.9778 10.7473C15.188 11.5836 13.8572 11.5829 13.0683 10.7458L12.7309 10.3878C12.4385 10.5227 12.1631 10.69 11.909 10.8853L12.0652 11.4421ZM14.4999 15.5C13.9476 15.5 13.4999 15.0523 13.4999 14.5C13.4999 13.9477 13.9476 13.5 14.4999 13.5C15.0522 13.5 15.4999 13.9477 15.4999 14.5C15.4999 15.0523 15.0522 15.5 14.4999 15.5Z" fill="#212121"/>
</svg>

<svg xmlns="http://www.w3.org/2000/svg" width="20" height="20"><path d="M10 2a8 8 0 0 1 7.996 8.254 5.5 5.5 0 0 0-7.742 7.742 7.968 7.968 0 0 1-3.867-.857l-.121-.064-3.645.91a.5.5 0 0 1-.62-.441v-.082l.014-.083.91-3.644-.063-.12a7.95 7.95 0 0 1-.83-2.887l-.025-.382L2 10a8 8 0 0 1 8-8Zm2.065 9.442a2 2 0 0 1-1.43 2.478l-.461.118a4.733 4.733 0 0 0 .01 1.016l.35.083a2 2 0 0 1 1.455 2.519l-.126.423c.257.203.537.377.835.518l.325-.345a2 2 0 0 1 2.909.002l.337.358c.293-.135.568-.302.822-.498l-.156-.556a2 2 0 0 1 1.43-2.478l.461-.118a4.735 4.735 0 0 0-.01-1.017l-.349-.082a2 2 0 0 1-1.456-2.52l.126-.421a4.317 4.317 0 0 0-.835-.518l-.324.343a2 2 0 0 1-2.91-.001l-.337-.358a4.316 4.316 0 0 0-.822.497l.156.557ZM14.5 15.5a1 1 0 1 1 0-2 1 1 0 0 1 0 2Z"/></svg>
